X:1
T:Harmony
T:G Major       William Walker, 1835
T:Transcribed from Southern Harmony, 1835.
T:Susanna Harrison,, 1780 Songs in the Night No. 80                   88. 88. (L. M.)            
%%score [ 1 2 3 ]
L:1/8
Q:1/4=100
M:2/4
K:G
V:1 treble nm="Tr." snm="Tr."
V:2 treble-8 nm="T." snm="T."
V:3 bass nm="B." snm="B."
V:1
"_1.{" z2"_A  –  way,  my doubts, begone, my fears,  The  wonder    of   the  Lord  ap – pears,\nThe   wonder  that  my  Savior wrought,  O     how  de–light–ful   is   the  thought!" B2 | %1
 [Bd]3 [Ace] | [Bd]2 AB | d2 d2 | B2 B2 | G3 A | B2 B2 | e2 d2 | [Bd]4 :| %9
"_}" z2"_The wonders  of re –dee –ming  love,  When first my heart was drawn above;" d2 | B3 A | %11
 B2 B2 | d2 dB | A3 A | B3 d | e2 d2 | B2 B2 | d4 | %18
 z2"_When   first    I    saw    my    Savior's  face,  And triumphed in  his  pardoning   grace." B2 | %19
 [Bd]3 [Ace] | [Bd]2 AB | d2 d2 | B2 B2 | G3 A | B2 B2 | e2 d2 | [Bd]4 |] %27
V:2
"_2.{" z2"_Pursue,  my thoughts, this pleasing theme, Twas not a   fan – cy  nor    a    dream;\nTwas    grace  descending  from  the skies,  And shall be mar–velous in  my  eyes." GA | %1
 B3 c | B2 AG | A2 B2 | B2 g2 | e3 d | B2 d2 | e2 GA | G4 :| %9
"_}" z2"_Long  had I mourned, like one forgot,  Long had my soul for comfort fought," B2 | d3 e | %11
 d2 B2 | g2 de | d3 d | e3 d | e2 f2 | g2 B2 | A4 | %18
 z2"_Je   –   sus     was  wit  –  ness  to my tears,  And  Je  – sus   sweetly  calmed  my fears." GA | %19
 B3 c | B2 AG | A2 B2 | B2 g2 | e3 d | B2 d2 | e2 GA | G4 |] %27
V:3
"_3.{" z2"_He cleansed my soul, he changed my dress, And clothed me with his righteousness:\nHe         spoke  at  once my    sins fo –rgiven, And  I  re – joiced  as  if   in    heaven." G,F, | %1
 E,3 F, | G,2 F,E, | D,2 D,2 | G,2 G,2 | E,3 D, | E,2 D,2 | E,2 G,F, | G,4 :| %9
"_}" z2"_How  was  I  struck with sweet surprise,  While glory shone before my eyes!\n" G,2 | %10
 D,3 D, | D,2 E,2 | G,2 G,2 | D,3 D, | E,3 F, | G,2 F,2 | E,2 G,2 | D,4 | %18
 z2"_How    did     I    sing   from   day  to   day,  And  wished  to  sing  my  soul  a  –  way!\n" G,F, | %19
 E,3 F, | G,2 F,E, | D,2 D,2 | G,2 G,2 | E,3 D, | E,2 D,2 | E,2 G,F, | G,4 |] %27

